svg/color/fuze.svg

<?xml version="1.0" encoding="UTF-8" ?>
<!DOCTYPE svg PUBLIC "-//W3C//DTD SVG 1.1//EN" "http://www.w3.org/Graphics/SVG/1.1/DTD/svg11.dtd">
<svg width="250pt" height="250pt" viewBox="0 0 250 250" version="1.1" xmlns="http://www.w3.org/2000/svg">
<g id="#ffffffff">
<path fill="#ffffff" opacity="1.00" d=" M 0.00 0.00 L 250.00 0.00 L 250.00 250.00 L 0.00 250.00 L 0.00 0.00 M 83.78 109.80 C 82.57 108.21 81.01 106.92 79.57 105.54 C 78.24 103.66 76.06 102.61 74.27 101.22 C 75.35 105.06 76.62 108.93 76.64 112.96 C 77.03 118.52 73.70 123.44 73.67 128.96 C 73.00 140.74 78.60 154.27 90.39 158.51 C 96.30 161.19 103.07 160.35 108.93 157.98 C 116.65 154.45 121.00 146.37 122.71 138.38 C 124.70 131.14 122.18 123.50 119.01 116.97 C 116.87 112.31 111.68 110.06 109.60 105.39 C 107.28 100.39 107.11 94.77 106.51 89.38 C 105.89 90.10 105.27 90.82 104.66 91.55 C 104.67 91.64 104.67 91.81 104.68 91.90 C 100.02 98.50 98.03 107.15 100.35 115.00 C 101.87 121.45 106.29 126.67 108.30 132.91 C 109.12 135.15 108.12 137.34 107.30 139.40 C 105.03 141.04 102.95 143.27 100.06 143.75 C 93.98 145.01 88.43 138.77 88.97 132.94 C 90.00 124.73 97.81 119.25 98.57 110.91 C 99.43 102.06 98.14 92.35 92.64 85.11 C 92.04 83.96 91.15 82.98 90.40 81.92 C 92.92 91.59 91.18 102.67 83.78 109.80 M 49.89 109.99 C 41.22 112.98 35.07 121.91 35.19 131.05 C 35.17 138.81 35.19 146.58 35.19 154.34 C 38.97 154.34 42.75 154.34 46.53 154.34 C 46.54 150.68 46.55 147.01 46.55 143.35 C 53.59 143.34 60.64 143.33 67.68 143.36 C 67.64 139.60 67.86 135.83 67.61 132.08 C 60.67 131.42 53.47 132.01 46.43 131.81 C 46.54 126.67 49.87 121.02 55.35 120.39 C 61.10 120.12 66.88 120.36 72.64 120.29 C 72.69 116.45 72.69 112.61 72.63 108.76 C 65.07 109.21 57.24 107.70 49.89 109.99 M 123.37 120.30 C 131.57 120.29 139.77 120.26 147.97 120.32 C 140.80 126.69 133.39 132.80 126.27 139.23 C 123.29 141.68 122.19 146.02 123.73 149.57 C 125.78 153.14 130.18 154.38 134.05 154.35 C 144.09 154.33 154.12 154.37 164.16 154.32 C 163.97 150.45 164.59 146.53 163.72 142.73 C 155.59 142.87 147.45 142.86 139.31 142.72 C 146.34 136.96 153.12 130.90 160.04 125.01 C 163.23 122.48 165.67 118.11 163.83 114.07 C 162.00 110.00 157.12 108.75 153.04 108.77 C 143.15 108.77 133.27 108.79 123.38 108.76 C 123.33 112.61 123.33 116.45 123.37 120.30 M 168.10 131.01 C 167.37 142.31 176.45 153.53 187.92 154.26 C 194.76 154.47 201.60 154.27 208.45 154.34 C 208.46 150.50 208.46 146.65 208.42 142.81 C 201.71 142.73 194.99 142.96 188.28 142.72 C 184.91 142.53 182.56 139.87 180.60 137.43 C 187.00 137.19 193.40 137.37 199.81 137.32 C 199.85 133.47 199.85 129.62 199.78 125.78 C 193.41 125.73 187.03 125.92 180.66 125.66 C 182.69 122.96 185.46 120.29 189.08 120.33 C 195.53 120.21 201.99 120.33 208.44 120.29 C 208.46 116.45 208.46 112.61 208.43 108.77 C 201.60 108.86 194.75 108.61 187.92 108.88 C 176.88 109.65 167.89 120.07 168.10 131.01 Z" />
</g>
<g id="#f63e00ff">
<path fill="#f63e00" opacity="1.00" d=" M 83.78 109.80 C 91.18 102.67 92.92 91.59 90.40 81.92 C 91.15 82.98 92.04 83.96 92.64 85.11 C 95.90 95.68 95.80 108.16 88.18 116.90 C 86.76 114.51 85.36 112.09 83.78 109.80 Z" />
<path fill="#f63e00" opacity="1.00" d=" M 104.68 91.90 C 104.99 98.30 104.42 105.00 107.09 111.01 C 111.44 120.64 120.50 127.72 122.71 138.38 C 121.00 146.37 116.65 154.45 108.93 157.98 C 103.07 160.35 96.30 161.19 90.39 158.51 C 78.60 154.27 73.00 140.74 73.67 128.96 C 73.70 123.44 77.03 118.52 76.64 112.96 C 76.62 108.93 75.35 105.06 74.27 101.22 C 76.06 102.61 78.24 103.66 79.57 105.54 C 81.58 111.49 84.05 117.57 83.54 123.98 C 83.23 129.49 79.40 134.32 80.16 139.97 C 80.61 147.74 88.72 155.65 96.73 152.75 C 102.62 150.82 105.87 145.08 107.30 139.40 C 108.12 137.34 109.12 135.15 108.30 132.91 C 106.29 126.67 101.87 121.45 100.35 115.00 C 98.03 107.15 100.02 98.50 104.68 91.90 Z" />
</g>
<g id="#ff8000ff">
<path fill="#ff8000" opacity="1.00" d=" M 92.64 85.11 C 98.14 92.35 99.43 102.06 98.57 110.91 C 97.81 119.25 90.00 124.73 88.97 132.94 C 88.43 138.77 93.98 145.01 100.06 143.75 C 102.95 143.27 105.03 141.04 107.30 139.40 C 105.87 145.08 102.62 150.82 96.73 152.75 C 88.72 155.65 80.61 147.74 80.16 139.97 C 79.40 134.32 83.23 129.49 83.54 123.98 C 84.05 117.57 81.58 111.49 79.57 105.54 C 81.01 106.92 82.57 108.21 83.78 109.80 C 85.36 112.09 86.76 114.51 88.18 116.90 C 95.80 108.16 95.90 95.68 92.64 85.11 Z" />
<path fill="#ff8000" opacity="1.00" d=" M 104.66 91.55 C 105.27 90.82 105.89 90.10 106.51 89.38 C 107.11 94.77 107.28 100.39 109.60 105.39 C 111.68 110.06 116.87 112.31 119.01 116.97 C 122.18 123.50 124.70 131.14 122.71 138.38 C 120.50 127.72 111.44 120.64 107.09 111.01 C 104.42 105.00 104.99 98.30 104.68 91.90 C 104.67 91.81 104.67 91.64 104.66 91.55 Z" />
</g>
<g id="#5b5b5bff">
<path fill="#5b5b5b" opacity="1.00" d=" M 49.89 109.99 C 57.24 107.70 65.07 109.21 72.63 108.76 C 72.69 112.61 72.69 116.45 72.64 120.29 C 66.88 120.36 61.10 120.12 55.35 120.39 C 49.87 121.02 46.54 126.67 46.43 131.81 C 53.47 132.01 60.67 131.42 67.61 132.08 C 67.86 135.83 67.64 139.60 67.68 143.36 C 60.64 143.33 53.59 143.34 46.55 143.35 C 46.55 147.01 46.54 150.68 46.53 154.34 C 42.75 154.34 38.97 154.34 35.19 154.34 C 35.19 146.58 35.17 138.81 35.19 131.05 C 35.07 121.91 41.22 112.98 49.89 109.99 Z" />
<path fill="#5b5b5b" opacity="1.00" d=" M 123.37 120.30 C 123.33 116.45 123.33 112.61 123.38 108.76 C 133.27 108.79 143.15 108.77 153.04 108.77 C 157.12 108.75 162.00 110.00 163.83 114.07 C 165.67 118.11 163.23 122.48 160.04 125.01 C 153.12 130.90 146.34 136.96 139.31 142.72 C 147.45 142.86 155.59 142.87 163.72 142.73 C 164.59 146.53 163.97 150.45 164.16 154.32 C 154.12 154.37 144.09 154.33 134.05 154.35 C 130.18 154.38 125.78 153.14 123.73 149.57 C 122.19 146.02 123.29 141.68 126.27 139.23 C 133.39 132.80 140.80 126.69 147.97 120.32 C 139.77 120.26 131.57 120.29 123.37 120.30 Z" />
<path fill="#5b5b5b" opacity="1.00" d=" M 168.10 131.01 C 167.89 120.07 176.88 109.65 187.92 108.88 C 194.75 108.61 201.60 108.86 208.43 108.77 C 208.46 112.61 208.46 116.45 208.44 120.29 C 201.99 120.33 195.53 120.21 189.08 120.33 C 185.46 120.29 182.69 122.96 180.66 125.66 C 187.03 125.92 193.41 125.73 199.78 125.78 C 199.85 129.62 199.85 133.47 199.81 137.32 C 193.40 137.37 187.00 137.19 180.60 137.43 C 182.56 139.87 184.91 142.53 188.28 142.72 C 194.99 142.96 201.71 142.73 208.42 142.81 C 208.46 146.65 208.46 150.50 208.45 154.34 C 201.60 154.27 194.76 154.47 187.92 154.26 C 176.45 153.53 167.37 142.31 168.10 131.01 Z" />
</g>
</svg>

<?xml version="1.0" encoding="utf-8"?>
<!-- Generator: Adobe Illustrator 26.0.3, SVG Export Plug-In . SVG Version: 6.00 Build 0)  -->
<svg version="1.1" id="Layer_1" xmlns="http://www.w3.org/2000/svg" xmlns:xlink="http://www.w3.org/1999/xlink" x="0px" y="0px"
	 viewBox="0 0 250 250" style="enable-background:new 0 0 250 250;" xml:space="preserve">
<style type="text/css">
	.st0{fill:#F63E00;}
	.st1{fill:#FF8000;}
	.st2{fill:#5B5B5B;}
</style>
<g id="_x23_f63e00ff">
	<path class="st0" d="M83.8,109.8c7.4-7.1,9.1-18.2,6.6-27.9c0.8,1.1,1.6,2,2.2,3.2c3.3,10.6,3.2,23.1-4.5,31.8
		C86.8,114.5,85.4,112.1,83.8,109.8z"/>
	<path class="st0" d="M104.7,91.9c0.3,6.4-0.3,13.1,2.4,19.1c4.4,9.6,13.4,16.7,15.6,27.4c-1.7,8-6.1,16.1-13.8,19.6
		c-5.9,2.4-12.6,3.2-18.5,0.5C78.6,154.3,73,140.7,73.7,129c0-5.5,3.4-10.4,3-16c0-4-1.3-7.9-2.4-11.7c1.8,1.4,4,2.4,5.3,4.3
		c2,5.9,4.5,12,4,18.4c-0.3,5.5-4.1,10.3-3.4,16c0.4,7.8,8.6,15.7,16.6,12.8c5.9-1.9,9.1-7.7,10.6-13.4c0.8-2.1,1.8-4.2,1-6.5
		c-2-6.2-6.4-11.5-8-17.9C98,107.2,100,98.5,104.7,91.9z"/>
</g>
<g id="_x23_ff8000ff">
	<path class="st1" d="M92.6,85.1c5.5,7.2,6.8,16.9,5.9,25.8c-0.8,8.3-8.6,13.8-9.6,22c-0.5,5.8,5,12.1,11.1,10.8
		c2.9-0.5,5-2.7,7.2-4.4c-1.4,5.7-4.7,11.4-10.6,13.4c-8,2.9-16.1-5-16.6-12.8c-0.8-5.6,3.1-10.5,3.4-16c0.5-6.4-2-12.5-4-18.4
		c1.4,1.4,3,2.7,4.2,4.3c1.6,2.3,3,4.7,4.4,7.1C95.8,108.2,95.9,95.7,92.6,85.1z"/>
	<path class="st1" d="M104.7,91.6c0.6-0.7,1.2-1.5,1.8-2.2c0.6,5.4,0.8,11,3.1,16c2.1,4.7,7.3,6.9,9.4,11.6
		c3.2,6.5,5.7,14.2,3.7,21.4c-2.2-10.7-11.3-17.7-15.6-27.4c-2.7-6-2.1-12.7-2.4-19.1C104.7,91.8,104.7,91.6,104.7,91.6z"/>
</g>
<g id="_x23_5b5b5bff">
	<path class="st2" d="M49.9,110c7.4-2.3,15.2-0.8,22.7-1.2c0.1,3.8,0.1,7.7,0,11.5c-5.8,0.1-11.5-0.2-17.3,0.1
		c-5.5,0.6-8.8,6.3-8.9,11.4c7,0.2,14.2-0.4,21.2,0.3c0.2,3.8,0,7.5,0.1,11.3c-7,0-14.1,0-21.1,0c0,3.7,0,7.3,0,11
		c-3.8,0-7.6,0-11.3,0c0-7.8,0-15.5,0-23.3C35.1,121.9,41.2,113,49.9,110z"/>
	<path class="st2" d="M123.4,120.3c0-3.9,0-7.7,0-11.5c9.9,0,19.8,0,29.7,0c4.1,0,9,1.2,10.8,5.3c1.8,4-0.6,8.4-3.8,10.9
		c-6.9,5.9-13.7,12-20.7,17.7c8.1,0.1,16.3,0.1,24.4,0c0.9,3.8,0.2,7.7,0.4,11.6c-10,0-20.1,0-30.1,0c-3.9,0-8.3-1.2-10.3-4.8
		c-1.5-3.6-0.4-7.9,2.5-10.3c7.1-6.4,14.5-12.5,21.7-18.9C139.8,120.3,131.6,120.3,123.4,120.3z"/>
	<path class="st2" d="M168.1,131c-0.2-10.9,8.8-21.4,19.8-22.1c6.8-0.3,13.7,0,20.5-0.1c0,3.8,0,7.7,0,11.5c-6.4,0-12.9-0.1-19.4,0
		c-3.6,0-6.4,2.6-8.4,5.3c6.4,0.3,12.8,0.1,19.1,0.1c0.1,3.8,0.1,7.7,0,11.5c-6.4,0-12.8-0.1-19.2,0.1c2,2.4,4.3,5.1,7.7,5.3
		c6.7,0.2,13.4,0,20.1,0.1c0,3.8,0,7.7,0,11.5c-6.8-0.1-13.7,0.1-20.5-0.1C176.4,153.5,167.4,142.3,168.1,131z"/>
</g>
</svg>
